X:267
T: Des Nachts, wenn ich ber die Gassen geh' (3-69), S. 197
N: P1042
O: Lothringen
S: PINCK, Louis: Verklingende Weisen, Bd3, Metz 1933]
R: Untreue]
M: 4/4
L: 1/8
K: G
G2 | _B2AAG2AA | G2F2G2
GA | _B2Bdc2Bc | d2c_BA2z
A | _BABcd2_ed | c_BAGc2z
c | dc_BAG2cA | _B2AAG2

@@@ Tune index: 7817
